projects/js-packages/social-logos/src/svg/xanga.svg

<svg enable-background="new 0 0 24 24" viewBox="0 0 24 24" xmlns="http://www.w3.org/2000/svg"><path d="m9 9h6v6h-6zm-6 0h6v-6h-6zm12 0h6v-6h-6zm0 12h6v-6h-6zm-12 0h6v-6h-6z"/></svg>

<?xml version="1.0" encoding="iso-8859-1"?>
<!-- Generator: Adobe Illustrator 19.2.1, SVG Export Plug-In . SVG Version: 6.00 Build 0)  -->
<svg version="1.1" xmlns="http://www.w3.org/2000/svg" xmlns:xlink="http://www.w3.org/1999/xlink" x="0px" y="0px"
	 viewBox="0 0 24 24" style="enable-background:new 0 0 24 24;" xml:space="preserve">
<g id="xanga">
	<path d="M9,9h6v6H9V9z M3,9h6V3H3V9z M15,9h6V3h-6V9z M15,21h6v-6h-6V21z M3,21h6v-6H3V21z"/>
</g>
<g id="Layer_1">
</g>
</svg>
